assets/icons/qvision/looks_two.svg

<svg xmlns="http://www.w3.org/2000/svg" height="24" viewBox="0 0 24 24" width="24"><path d="M0 0h24v24H0z" fill="none"/><path d="M19 3H5c-1.1 0-2 .9-2 2v14c0 1.1.9 2 2 2h14c1.1 0 2-.9 2-2V5c0-1.1-.9-2-2-2zm-4 8c0 1.11-.9 2-2 2h-2v2h4v2H9v-4c0-1.11.9-2 2-2h2V9H9V7h4c1.1 0 2 .89 2 2v2z"/></svg>

<svg width="24" height="24" viewBox="0 0 24 24" fill="none" xmlns="http://www.w3.org/2000/svg">
<g clip-path="url(#clip0_147_3569)">
<path d="M19 3H5C3.9 3 3 3.9 3 5V19C3 20.1 3.9 21 5 21H19C20.1 21 21 20.1 21 19V5C21 3.9 20.1 3 19 3ZM15 11C15 12.11 14.1 13 13 13H11V15H15V17H9V13C9 11.89 9.9 11 11 11H13V9H9V7H13C14.1 7 15 7.89 15 9V11Z" fill="#323232"/>
</g>
<defs>
<clipPath id="clip0_147_3569">
<rect width="24" height="24" fill="white"/>
</clipPath>
</defs>
</svg>
